X:303
T:Savior, Who Thy Flock Art Feeding
%%stretchlast false
M:none
L:1/4
K:Eb clef=C1
"^I"[E,G,B,E] "^V¹"[D,F,B,F] "^I"[E,B,EG] "^vii°¹"[F,A,DF] | "^I"[E,B,EG] "^IV¹"[C,E,EA] "^V"[B,,F,DB]2 | "^I"[E,G,B,G]2 "^IV"[A,,A,Ec] "^I"[E,,G,EB] | "^ii"[F,,A,CA] "^I¹"[G,,B,EG] "^ii¹"[A,,CF] [A,,CF] | "^III"[G,,=B,DG]4 | "^iii"[G,,G,DB] "^V7²"[F,,A,DB] "^I"[E,,G,EB] [E,B,G]/ "^i"[E,A,FA]/ | "^I"[E,G,GB] "^V¹"[D,B,FB]/ "^V7¹"[D,B,FA]/ "^I"[E,B,FG] [E,B,EG] | "^V"[B,,B,DF]2 "^vi"[C,G,CE] "^V"[B,,B,DF] | "^I"[E,B,EG] "^IV"[A,,CEA] "^I²"[B,,B,EG] "^V7"[B,,A,DF] | "^I"[E,,G,E]4 |]
